X: 81
T: Królowie sądzą poddane,
C: Mikołaj Gomółka
%%abc-version 2.0
%%abcx-abcm2ps-target-version 5.9.1 (29 Sep 2008)
%%abc-creator hum2abc beta
%%abcx-conversion-date 2021/10/04 07:59:09
%%abc-edited-by Anna Matuszewska
%%abcx-initial-encoding-date 2020-02-15
%%humdrum-veritas 890550188
%%humdrum-veritas-data 4211728305
%%linebreak <none>
%%barnumbers 0
L: 1/4
M: C|
N: Derived from pl-wn--sd-xvi-qu-273--082_gomolka-mikolaj--krolowie-sadza-poddane.krn
%%staves [1 2 3 4]
V: 1
V: 2 clef=alto
V: 3 clef=tenor
V: 4 clef=bass
K: F
[V:1] A4A2A2 | 
[V:2] C4A,B,CD | 
[V:3] F,4F,2F,2 | 
[V:4] F,,4F,,G,,A,,B,, [|] 
[V:1] G2>F2EDC4 | 
[V:2] EFG2C2C2 | 
[V:3] E,2>F,2G,2A,4 | 
[V:4] C,2>D,2E,2F,2 [|] 
[V:1] B,2C2C2 | 
[V:2] F,4G,2A,3 | 
[V:3] G,F,E,2F,3 | 
[V:4] D,4C,2F,,2 [|] 
[V:1] C2>D2E2F2 | 
[V:2] B,C2C2A,2 | 
[V:3] G,A,2G,2F,2 | 
[V:4] A,,2>B,,2C,2D,2 [|] 
[V:1] G2F4E2 | 
[V:2] D2D2C4 | 
[V:3] B,4A,2G,2 | 
[V:4] B,,2B,,2C,4 [|] 
[V:1] F2A4F2 | 
[V:2] B,2A,2F3E | 
[V:3] F,2>G,2A,2A,2 | 
[V:4] D,2>E,2F,E,D,C, [|] 
[V:1] B4A2G2 | 
[V:2] DCD2E2E2 | 
[V:3] B,2B,2C2C2 | 
[V:4] B,,A,,G,,2C,2C,2 [|] 
[V:1] F2F2E2G4 | 
[V:2] D4G,2C2 | 
[V:3] A,2B,2C2G,2 | 
[V:4] D,4C,4 [|] 
[V:1] E2A2F2 | 
[V:2] C2C4A,2 | 
[V:3] E,4F,2F,2 | 
[V:4] z2C,2A,,2D,2 [|] 
[V:1] B2>A2G2F4 | 
[V:2] DEFED2C2 | 
[V:3] FEDCB,2A,4 | 
[V:4] B,,6F,,2 [|] 
[V:1] EDEF2E | 
[V:2] C4C3D | 
[V:3] G,F,G,A,G,2 | 
[V:4] C,4C,4 [|] 
[V:1] F8 | 
[V:2] A,8 | 
[V:3] F,8 | 
[V:4] F,,8 | 


